X: 1744
T: Servinâzı Seyret Çıkmış Oyuna
C: Rahmi Bey
O: Turkey
F: http://compmusic.upf.edu/node/140
N: mahur--sarki--aksak--servinazi_seyret--rahmi_bey
N: makam= mahur
N: form= sarki
N: usul= aksak = 9/8
M: 9/8
L: 1/16
K: C ^9/8f   
Q: 1/4=204
%%MIDI tuningsystem comma53
gagf e4 fefg agfe d2 | z2 efe2 f2g2 a2b2 a2g2  | 
w:  ARANAĞME  |   | 
z2c'2 b2a2 aggf g6 | ag g=ffe eddf ed.d2 .d2.d2  | 
w:   |   | 
cBce dedc dcB^3/4A B4 z2 | GF GABA Bcde fgag =fedc  | 
w:   |   | 
BcBA G2B2 .A4 F2G2 A2 | G6 D2ED EFG3def  | \
w:   |   | 
gagf e4 fefg agfe d2 | 
w:  ARANAĞME  | 
z2 efe2 f2g2 a2b2 a2g2  | z2c'2 b2a2 aggf g6 | \
w:   |   | 
ag g=ffe eddf ed.d2 .d2.d2  | 
w:   | 
cBce dedc dcB^3/4A B4 z2 | GF GABA Bcde fgag =fedc  | 
w:   |   | 
BcBA G2B2 .A4 F2G2 A2 | G6 D2ED EFG3def  | \
w:   |   | 
g4 e2f2 g4 a2g2 f2 | 
w:  *  Ser vi nâ zı   | 
f3eeg ^feed d^3/4cd6  | z4 .e2f2 g2a2 b2a2 g2 | \
w:  sey *  ret  *  *  *  çık *  *  *  mş   |  o yu na   | 
z2 c'2b2 a2ag gfg3def  | 
w:  o *  *  yu *  *  *  na   SAZ  | 
g4 e2f2 g4 a2g2 f2 | f3eeg ^feed d^3/4cd6  | \
w:  *  Ser vi nâ zı   |  sey *  ret  *  *  *  çık *  *  *  mş   | 
z4 .e2f2 g2a2 b2a2 g2 | 
w:  o yu na   | 
z2 c'2b2 a2ag gfg3def  | g4 agg=f feed dcB^3/4A B2 | 
w:  o *  *  yu *  *  *  na   SAZ  |  *  Pen *  be *  ler  *  *  *  ya  | 
cB ced3cB2 ABdc BAGF  | G4 F2G2 A2B2 c2B2 A2 | 
w:  raş *  *  *  mış  *  fi *  *  dan   |  *  bo yu na   | 
G3FE2 F2G4G3def  | g4 agg=f feed dcB^3/4A B2 | 
w:  bo *  *  yu na   SAZ  |  *  Pen *  be *  ler  *  *  *  ya  | 
cB ced3cB2 ABdc BAGF  | G4 F2G2 A2B2 c2B2 A2 | 
w:  raş *  *  *  mış  *  fi *  *  dan   |  *  bo yu na   | 
G3FE2 F2G4c4Bd  | c4 B2c2 c4 c2B2 A2 | \
w:  bo *  *  yu na   SAZ  |  *  A cep  ne  cin  | 
^G2 A2Bd cBBA AGA4z2  | 
w:  si *  di *  *  *  yor *  *  *  lar   | 
z4 G2c2 B2c2 d2e2 =f2 | e3dc2 d2e4e3dcd  | \
w:  so yu na   |  so *  *  yu na   SAZ  | 
e4 ^3/4c2d2 e2f2 g2a2 b2 | 
w:  *  A cep  ne  *  cin  | 
g2 c'2b2 a2ag gfg4^fe  | e3d e2f2 g2a2 b2a2 g2 | \
w:  si  *  di *  yor *  *  *  lar   |  *  *  so yu na   | 
z2 c'2b2 a2ag gfg3def  | 
w:  so *  *  yu *  *  *  na   SAZ  | 
g4 agg=f feed dcB^3/4A B2 | cB ced3cB2 ABdc BAGF  | 
w:  *  Pen *  be *  ler  *  *  *  ya  |  raş *  *  *  mış  *  fi *  *  dan   | 
G4 F2G2 A2B2 c2B2 A2 | G3FE2 F2G4G3def  | \
w:  *  bo yu na   |  bo *  *  yu na   SAZ  | 
g4 agg=f feed dcB^3/4A B2 | 
w:  *  Pen *  be *  ler  *  *  *  ya  | 
cB ced3cB2 ABdc BAGF  | G4 F2G2 A2B2 c2B2 A2 | 
w:  raş *  *  *  mış  *  fi *  *  dan   |  *  bo yu na   | 
G3FE2 F2G4z6  | |


